X: 2040
T: The Dead Easy Fall Down The Stairs
C:Steve Ryan
B: steve tunes
B: steve originals
M:6/8
Q: 3/8=95
K:D
V:1 
"D"AGF FED|AGF FED|AGF FED|"A"EFG E3|
"D"AGF FED|AGF FED|"A"AGF GFE|"D"FED D3|
"A"EFG "D"FED|"A"EFG "D"F3|"A"EFG "D"FED|"A"EFE "D"D3|
"A"EFG "D"FED|"A"EFG "D"F3|"D"AGF "A"GFE|"D"FDD D3||
W: 
% abcbook-tune_id 62a52962d3636234b17b38ab


% abcbook-boost 0
% abcbook-tablature 
% abcbook-transpose 
% abcbook-lastupdated 1667171958189
% abcbook-soundfonts 
% abcbook-repeats 3


